src/modules/map/components/rotationButton/assets/bi-forward-rotated.svg

<?xml version="1.0" encoding="UTF-8" standalone="no"?>
<svg
   xmlns:dc="http://purl.org/dc/elements/1.1/"
   xmlns:cc="http://creativecommons.org/ns#"
   xmlns:rdf="http://www.w3.org/1999/02/22-rdf-syntax-ns#"
   xmlns:svg="http://www.w3.org/2000/svg"
   xmlns="http://www.w3.org/2000/svg"
   id="svg846"
   version="1.1"
   viewBox="0 0 16 16"
   class="bi bi-forward"
   fill="currentColor"
   height="16"
   width="16">
  <metadata
     id="metadata852">
    <rdf:RDF>
      <cc:Work
         rdf:about="">
        <dc:format>image/svg+xml</dc:format>
        <dc:type
           rdf:resource="http://purl.org/dc/dcmitype/StillImage" />
        <dc:title></dc:title>
      </cc:Work>
    </rdf:RDF>
  </metadata>
  <defs
     id="defs850" />
  <!--MIT License-->
  <path
     id="path1515-3"
     d="M 0.6625897,8.3510818 C -0.22251746,8.3685828 -0.19555993,7.6614979 0.6895472,7.6439967 H 3.3426235 V 8.3510818 H 0.68954735 c -0.008978,-1.778e-4 -0.0179734,-1.778e-4 -0.0269577,0 z m 12.1099853,0.05694 V 7.7009362 h 2.590175 c 0.885107,0 0.885107,0.7070851 0,0.7070851 z M 8.3647533,12.879895 v 2.502697 c 0,0.861943 -0.6723385,0.861943 -0.6723385,0 v -2.502697 z"
     style="fill-rule:evenodd;stroke-width:1.31005192" />
  <g
     transform="translate(-0.935492,-0.1917382)"
     id="text2713"
     style="font-style:normal;font-weight:normal;font-size:7.4388175px;line-height:125%;font-family:Sans;letter-spacing:0px;word-spacing:0px;fill:#000000;fill-opacity:1;stroke:none;stroke-width:0.18597041px;stroke-linecap:butt;stroke-linejoin:miter;stroke-opacity:1"
     aria-label="N">
    <path
       id="path1594"
       style="font-style:normal;font-variant:normal;font-weight:normal;font-stretch:normal;font-family:Vemana2000;-inkscape-font-specification:Vemana2000;stroke-width:0.16394372px"
       d="M 7.1005792,5.8723982 H 7.9715303 L 10.091272,9.871729 V 5.8723982 h 0.627597 V 10.653024 H 9.8479177 L 7.7281763,6.6536926 V 10.653024 H 7.1005792 Z" />
  </g>
  <path
     style="stroke-width:0.38748702"
     id="path923-6"
     d="M 7.7718127,0.17316523 6.2539779,2.7734977 C 6.0748511,3.0804527 6.2314754,3.2180679 6.5033352,3.2180679 H 9.5390037 C 9.8111367,3.2184184 9.9456004,3.0803324 9.7662641,2.7734977 L 8.2484302,0.17363964 c -0.1261039,-0.21632542 -0.3505136,-0.21632542 -0.4766175,0 z" />
</svg>

<svg xmlns="http://www.w3.org/2000/svg" width="16" height="16" fill="currentColor" class="bi bi-forward"><!--MIT License--><path d="M.663 8.351c-.886.018-.859-.69.027-.707h2.653v.707H.663zm12.11.057v-.707h2.59c.885 0 .885.707 0 .707zM8.365 12.88v2.503c0 .862-.673.862-.673 0V12.88z" style="fill-rule:evenodd;stroke-width:1.31005192"/><g style="font-style:normal;font-weight:400;font-size:7.4388175px;line-height:125%;font-family:Sans;letter-spacing:0;word-spacing:0;fill:#000;fill-opacity:1;stroke:none;stroke-width:.18597041px;stroke-linecap:butt;stroke-linejoin:miter;stroke-opacity:1"><path d="M7.1 5.872h.872l2.12 4v-4h.627v4.781h-.871l-2.12-4v4h-.627Z" aria-label="N" style="font-style:normal;font-variant:normal;font-weight:400;font-stretch:normal;font-family:Vemana2000;-inkscape-font-specification:Vemana2000;stroke-width:.16394372px" transform="translate(-.935 -.192)"/></g><path d="m7.772.173-1.518 2.6c-.18.307-.023.445.25.445h3.035c.272 0 .407-.138.227-.445L8.248.173c-.126-.216-.35-.216-.476 0z" style="stroke-width:.38748702"/></svg>
